X:1
T:Ruth (Smith), 11.11.11.11
T:Ruth (Smith), 11.11.11.11
T:Samuel Smith, 1865
T:Public Domain Courtesy of the Cyber Hymnal™
C:Samuel Smith, 1865
Z:Public Domain
Z:Courtesy of the Cyber Hymnal™
%%score ( 1 2 ) ( 3 4 )
L:1/8
Q:1/4=118
M:4/4
K:Db
V:1 treble 
V:2 treble 
V:3 bass 
V:4 bass 
V:1
 [A,D]3 [A,D] [A,D]2 [CE]2 | [DF]4 [DA]4 | [DG]3 [DG] [DG]2 [GB]2 | [Fd]8 | %4
 [Dd]3 [Dd] [Ec]2 [EB]2 | [FA]4 [DF]4 | [DE]3 [DE] [DE]2 [DF]2 | [CE]8 | [CG]3 [CG] [DF]2 [A,E]2 | %9
 [A,F]4 A4 | [F_c]3 [Fc] [GB]2 [DA]2 | [DB]8 | [Ec]3 [Ec] [DB]2 [Ec]2 | [Dd]4 [DF]4 | %14
 [DE]3 [DE] [DF]2 [CE]2 | D8 |] %16
V:2
 x8 | x8 | x8 | x8 | x8 | x8 | x8 | x8 | x8 | x4 (D2 F2) | x8 | x8 | x8 | x8 | x8 | D8 |] %16
V:3
 [D,F,]3 [D,F,] [D,F,]2 [D,G,]2 | [D,A,]4 [D,_C]4 | [D,B,]3 [D,B,] [D,B,]2 [D,B,]2 | [D,A,]8 | %4
 [B,,B,]3 [B,,B,] [C,A,]2 [C,G,]2 | [D,F,]4 [D,A,]4 | [G,,B,]3 [G,,B,] [=G,,B,]2 [G,,B,]2 | %7
 [A,,E,]8 | [A,,A,]3 [A,,A,] [B,,A,]2 [C,A,]2 | [D,F,]4 (F,2 A,2) | [D,D]3 [D,D] [E,D]2 [F,_C]2 | %11
 [G,B,]8 | [G,A,]3 [G,A,] [G,B,]2 [G,A,]2 | [F,A,]4 [B,D]4 | [G,B,]3 [G,B,] A,2 [A,,G,]2 | %15
 [D,F,]8 |] %16
V:4
 x8 | x8 | x8 | x8 | x8 | x8 | x8 | x8 | x8 | x4 D,4 | x8 | x8 | x8 | x8 | x4 A,2 x2 | x8 |] %16

